report_00007_2020-12-11T15:55:29.892Z/total-byte-weight/samples/empty/raw/sorted.svg

<svg width="640" height="490" xmlns="http://www.w3.org/2000/svg" xmlns:xlink="http://www.w3.org/1999/xlink"><path fill="#fff" d="M0 0h640v490H0z"/><defs><path id="d" stroke-width=".222" stroke="currentColor" d="M-1-1h2v2h-2z"/><path id="b" stroke-width=".222" stroke="currentColor" d="M0-1.33l-1.33 2h2.66z"/><path id="f" stroke-width=".222" stroke="currentColor" d="M0 1.33L1.265.411.782-1.067l-1.564-.009-.483 1.487z"/><use xlink:href="#b" id="c" stroke="currentColor" transform="rotate(180)"/><use xlink:href="#d" id="e" stroke="currentColor" transform="rotate(45)"/><circle id="a" stroke-width=".222" stroke="currentColor" cx="0" cy="0" r="1"/></defs><g fill="none" color="#000" stroke="currentColor"><path stroke="#000" d="M87.1 418h9m518.9 0h-9"/><text transform="translate(78.8 421.9)" stroke="none" fill="#000" font-family="Arial" font-size="12" text-anchor="end"><tspan>291.999</tspan></text></g><g fill="none" color="#000" stroke="currentColor"><path stroke="#000" d="M87.1 378h9m518.9 0h-9"/><text transform="translate(78.8 381.9)" stroke="none" fill="#000" font-family="Arial" font-size="12" text-anchor="end"><tspan>291.999</tspan></text></g><g fill="none" color="#000" stroke="currentColor"><path stroke="#000" d="M87.1 338h9m518.9 0h-9"/><text transform="translate(78.8 341.9)" stroke="none" fill="#000" font-family="Arial" font-size="12" text-anchor="end"><tspan>291.999</tspan></text></g><g fill="none" color="#000" stroke="currentColor"><path stroke="#000" d="M87.1 298h9m518.9 0h-9"/><text transform="translate(78.8 301.9)" stroke="none" fill="#000" font-family="Arial" font-size="12" text-anchor="end"><tspan>292</tspan></text></g><g fill="none" color="#000" stroke="currentColor"><path stroke="#000" d="M87.1 258h9m518.9 0h-9"/><text transform="translate(78.8 261.9)" stroke="none" fill="#000" font-family="Arial" font-size="12" text-anchor="end"><tspan>292</tspan></text></g><g fill="none" color="#000" stroke="currentColor"><path stroke="#000" d="M87.1 218h9m518.9 0h-9"/><text transform="translate(78.8 221.9)" stroke="none" fill="#000" font-family="Arial" font-size="12" text-anchor="end"><tspan>292</tspan></text></g><g fill="none" color="#000" stroke="currentColor"><path stroke="#000" d="M87.1 178.1h9m518.9 0h-9"/><text transform="translate(78.8 182)" stroke="none" fill="#000" font-family="Arial" font-size="12" text-anchor="end"><tspan>292</tspan></text></g><g fill="none" color="#000" stroke="currentColor"><path stroke="#000" d="M87.1 138.1h9m518.9 0h-9"/><text transform="translate(78.8 142)" stroke="none" fill="#000" font-family="Arial" font-size="12" text-anchor="end"><tspan>292</tspan></text></g><g fill="none" color="#000" stroke="currentColor"><path stroke="#000" d="M87.1 98.1h9m518.9 0h-9"/><text transform="translate(78.8 102)" stroke="none" fill="#000" font-family="Arial" font-size="12" text-anchor="end"><tspan>292.001</tspan></text></g><g fill="none" color="#000" stroke="currentColor"><path stroke="#000" d="M87.1 58.1h9m518.9 0h-9"/><text transform="translate(78.8 62)" stroke="none" fill="#000" font-family="Arial" font-size="12" text-anchor="end"><tspan>292.001</tspan></text></g><g fill="none" color="#000" stroke="currentColor"><path stroke="#000" d="M87.1 18.1h9m518.9 0h-9"/><text transform="translate(78.8 22)" stroke="none" fill="#000" font-family="Arial" font-size="12" text-anchor="end"><tspan>292.001</tspan></text></g><g fill="none" color="#000" stroke="currentColor"><path stroke="#000" d="M87.1 418v-9m0-390.9v9"/><text transform="translate(87.1 439.9)" stroke="none" fill="#000" font-family="Arial" font-size="12" text-anchor="middle"><tspan>0</tspan></text></g><g fill="none" color="#000" stroke="currentColor"><path stroke="#000" d="M140.4 418v-9m0-390.9v9"/><text transform="translate(140.4 439.9)" stroke="none" fill="#000" font-family="Arial" font-size="12" text-anchor="middle"><tspan>10</tspan></text></g><g fill="none" color="#000" stroke="currentColor"><path stroke="#000" d="M193.7 418v-9m0-390.9v9"/><text transform="translate(193.7 439.9)" stroke="none" fill="#000" font-family="Arial" font-size="12" text-anchor="middle"><tspan>20</tspan></text></g><g fill="none" color="#000" stroke="currentColor"><path stroke="#000" d="M247.1 418v-9m0-390.9v9"/><text transform="translate(247.1 439.9)" stroke="none" fill="#000" font-family="Arial" font-size="12" text-anchor="middle"><tspan>30</tspan></text></g><g fill="none" color="#000" stroke="currentColor"><path stroke="#000" d="M300.4 418v-9m0-390.9v9"/><text transform="translate(300.4 439.9)" stroke="none" fill="#000" font-family="Arial" font-size="12" text-anchor="middle"><tspan>40</tspan></text></g><g fill="none" color="#000" stroke="currentColor"><path stroke="#000" d="M353.7 418v-9m0-390.9v9"/><text transform="translate(353.7 439.9)" stroke="none" fill="#000" font-family="Arial" font-size="12" text-anchor="middle"><tspan>50</tspan></text></g><g fill="none" color="#000" stroke="currentColor"><path stroke="#000" d="M407 418v-9m0-390.9v9"/><text transform="translate(407 439.9)" stroke="none" fill="#000" font-family="Arial" font-size="12" text-anchor="middle"><tspan>60</tspan></text></g><g fill="none" color="#000" stroke="currentColor"><path stroke="#000" d="M460.4 418v-9m0-390.9v9"/><text transform="translate(460.4 439.9)" stroke="none" fill="#000" font-family="Arial" font-size="12" text-anchor="middle"><tspan>70</tspan></text></g><g fill="none" color="#000" stroke="currentColor"><path stroke="#000" d="M513.7 418v-9m0-390.9v9"/><text transform="translate(513.7 439.9)" stroke="none" fill="#000" font-family="Arial" font-size="12" text-anchor="middle"><tspan>80</tspan></text></g><g fill="none" color="#000" stroke="currentColor"><path stroke="#000" d="M567 418v-9m0-390.9v9"/><text transform="translate(567 439.9)" stroke="none" fill="#000" font-family="Arial" font-size="12" text-anchor="middle"><tspan>90</tspan></text></g><path stroke="#000" d="M87.1 18.1V418H615V18.1H87.1z" fill="none" color="#000"/><text transform="translate(292.2 457.9)" stroke="none" fill="#000" font-family="Arial" font-size="12" text-anchor="end" color="#000"><tspan>raw</tspan></text><path stroke="#9400D3" d="M300.5 454h42.2M87.1 218H615" fill="none" color="#000"/><text transform="translate(292.2 475.9)" stroke="none" fill="#000" font-family="Arial" font-size="12" text-anchor="end" color="#000"><tspan>score p10=2731008</tspan></text><path stroke="#009E73" d="M300.5 472h42.2" fill="none" color="#000"/><text transform="translate(517 457.9)" stroke="none" fill="#000" font-family="Arial" font-size="12" text-anchor="end" color="#000"><tspan>score median=4096000</tspan></text><path stroke="#56B4E9" d="M525.3 454h42.2" fill="none" color="#000"/><g fill="none" color="#000" stroke="currentColor"><path stroke="#000" d="M87.1 18.1V418H615V18.1H87.1z"/></g></svg>

<?xml version="1.0" encoding="utf-8"  standalone="no"?>
<svg 
 width="640" height="490"
 viewBox="0 0 640 490"
 xmlns="http://www.w3.org/2000/svg"
 xmlns:xlink="http://www.w3.org/1999/xlink"
>

<title>Gnuplot</title>
<desc>Produced by GNUPLOT 5.4 patchlevel 0 </desc>

<g id="gnuplot_canvas">

<rect x="0" y="0" width="640" height="490" fill="#ffffff"/>
<defs>

	<circle id='gpDot' r='0.5' stroke-width='0.5' stroke='currentColor'/>
	<path id='gpPt0' stroke-width='0.222' stroke='currentColor' d='M-1,0 h2 M0,-1 v2'/>
	<path id='gpPt1' stroke-width='0.222' stroke='currentColor' d='M-1,-1 L1,1 M1,-1 L-1,1'/>
	<path id='gpPt2' stroke-width='0.222' stroke='currentColor' d='M-1,0 L1,0 M0,-1 L0,1 M-1,-1 L1,1 M-1,1 L1,-1'/>
	<rect id='gpPt3' stroke-width='0.222' stroke='currentColor' x='-1' y='-1' width='2' height='2'/>
	<rect id='gpPt4' stroke-width='0.222' stroke='currentColor' fill='currentColor' x='-1' y='-1' width='2' height='2'/>
	<circle id='gpPt5' stroke-width='0.222' stroke='currentColor' cx='0' cy='0' r='1'/>
	<use xlink:href='#gpPt5' id='gpPt6' fill='currentColor' stroke='none'/>
	<path id='gpPt7' stroke-width='0.222' stroke='currentColor' d='M0,-1.33 L-1.33,0.67 L1.33,0.67 z'/>
	<use xlink:href='#gpPt7' id='gpPt8' fill='currentColor' stroke='none'/>
	<use xlink:href='#gpPt7' id='gpPt9' stroke='currentColor' transform='rotate(180)'/>
	<use xlink:href='#gpPt9' id='gpPt10' fill='currentColor' stroke='none'/>
	<use xlink:href='#gpPt3' id='gpPt11' stroke='currentColor' transform='rotate(45)'/>
	<use xlink:href='#gpPt11' id='gpPt12' fill='currentColor' stroke='none'/>
	<path id='gpPt13' stroke-width='0.222' stroke='currentColor' d='M0,1.330 L1.265,0.411 L0.782,-1.067 L-0.782,-1.076 L-1.265,0.411 z'/>
	<use xlink:href='#gpPt13' id='gpPt14' fill='currentColor' stroke='none'/>
	<filter id='textbox' filterUnits='objectBoundingBox' x='0' y='0' height='1' width='1'>
	  <feFlood flood-color='#FFFFFF' flood-opacity='1' result='bgnd'/>
	  <feComposite in='SourceGraphic' in2='bgnd' operator='atop'/>
	</filter>
	<filter id='greybox' filterUnits='objectBoundingBox' x='0' y='0' height='1' width='1'>
	  <feFlood flood-color='lightgrey' flood-opacity='1' result='grey'/>
	  <feComposite in='SourceGraphic' in2='grey' operator='atop'/>
	</filter>
</defs>
<g fill="none" color="#FFFFFF" stroke="black" stroke-width="1.00" stroke-linecap="butt" stroke-linejoin="miter">
</g>
<g fill="none" color="black" stroke="currentColor" stroke-width="1.00" stroke-linecap="butt" stroke-linejoin="miter">
	<path stroke='black'  d='M87.1,418.0 L96.1,418.0 M615.0,418.0 L606.0,418.0  '/>	<g transform="translate(78.8,421.9)" stroke="none" fill="black" font-family="Arial" font-size="12.00"  text-anchor="end">
		<text><tspan font-family="Arial" > 291.999</tspan></text>
	</g>
</g>
<g fill="none" color="black" stroke="currentColor" stroke-width="1.00" stroke-linecap="butt" stroke-linejoin="miter">
	<path stroke='black'  d='M87.1,378.0 L96.1,378.0 M615.0,378.0 L606.0,378.0  '/>	<g transform="translate(78.8,381.9)" stroke="none" fill="black" font-family="Arial" font-size="12.00"  text-anchor="end">
		<text><tspan font-family="Arial" > 291.999</tspan></text>
	</g>
</g>
<g fill="none" color="black" stroke="currentColor" stroke-width="1.00" stroke-linecap="butt" stroke-linejoin="miter">
	<path stroke='black'  d='M87.1,338.0 L96.1,338.0 M615.0,338.0 L606.0,338.0  '/>	<g transform="translate(78.8,341.9)" stroke="none" fill="black" font-family="Arial" font-size="12.00"  text-anchor="end">
		<text><tspan font-family="Arial" > 291.999</tspan></text>
	</g>
</g>
<g fill="none" color="black" stroke="currentColor" stroke-width="1.00" stroke-linecap="butt" stroke-linejoin="miter">
	<path stroke='black'  d='M87.1,298.0 L96.1,298.0 M615.0,298.0 L606.0,298.0  '/>	<g transform="translate(78.8,301.9)" stroke="none" fill="black" font-family="Arial" font-size="12.00"  text-anchor="end">
		<text><tspan font-family="Arial" > 292</tspan></text>
	</g>
</g>
<g fill="none" color="black" stroke="currentColor" stroke-width="1.00" stroke-linecap="butt" stroke-linejoin="miter">
	<path stroke='black'  d='M87.1,258.0 L96.1,258.0 M615.0,258.0 L606.0,258.0  '/>	<g transform="translate(78.8,261.9)" stroke="none" fill="black" font-family="Arial" font-size="12.00"  text-anchor="end">
		<text><tspan font-family="Arial" > 292</tspan></text>
	</g>
</g>
<g fill="none" color="black" stroke="currentColor" stroke-width="1.00" stroke-linecap="butt" stroke-linejoin="miter">
	<path stroke='black'  d='M87.1,218.0 L96.1,218.0 M615.0,218.0 L606.0,218.0  '/>	<g transform="translate(78.8,221.9)" stroke="none" fill="black" font-family="Arial" font-size="12.00"  text-anchor="end">
		<text><tspan font-family="Arial" > 292</tspan></text>
	</g>
</g>
<g fill="none" color="black" stroke="currentColor" stroke-width="1.00" stroke-linecap="butt" stroke-linejoin="miter">
	<path stroke='black'  d='M87.1,178.1 L96.1,178.1 M615.0,178.1 L606.0,178.1  '/>	<g transform="translate(78.8,182.0)" stroke="none" fill="black" font-family="Arial" font-size="12.00"  text-anchor="end">
		<text><tspan font-family="Arial" > 292</tspan></text>
	</g>
</g>
<g fill="none" color="black" stroke="currentColor" stroke-width="1.00" stroke-linecap="butt" stroke-linejoin="miter">
	<path stroke='black'  d='M87.1,138.1 L96.1,138.1 M615.0,138.1 L606.0,138.1  '/>	<g transform="translate(78.8,142.0)" stroke="none" fill="black" font-family="Arial" font-size="12.00"  text-anchor="end">
		<text><tspan font-family="Arial" > 292</tspan></text>
	</g>
</g>
<g fill="none" color="black" stroke="currentColor" stroke-width="1.00" stroke-linecap="butt" stroke-linejoin="miter">
	<path stroke='black'  d='M87.1,98.1 L96.1,98.1 M615.0,98.1 L606.0,98.1  '/>	<g transform="translate(78.8,102.0)" stroke="none" fill="black" font-family="Arial" font-size="12.00"  text-anchor="end">
		<text><tspan font-family="Arial" > 292.001</tspan></text>
	</g>
</g>
<g fill="none" color="black" stroke="currentColor" stroke-width="1.00" stroke-linecap="butt" stroke-linejoin="miter">
	<path stroke='black'  d='M87.1,58.1 L96.1,58.1 M615.0,58.1 L606.0,58.1  '/>	<g transform="translate(78.8,62.0)" stroke="none" fill="black" font-family="Arial" font-size="12.00"  text-anchor="end">
		<text><tspan font-family="Arial" > 292.001</tspan></text>
	</g>
</g>
<g fill="none" color="black" stroke="currentColor" stroke-width="1.00" stroke-linecap="butt" stroke-linejoin="miter">
	<path stroke='black'  d='M87.1,18.1 L96.1,18.1 M615.0,18.1 L606.0,18.1  '/>	<g transform="translate(78.8,22.0)" stroke="none" fill="black" font-family="Arial" font-size="12.00"  text-anchor="end">
		<text><tspan font-family="Arial" > 292.001</tspan></text>
	</g>
</g>
<g fill="none" color="black" stroke="currentColor" stroke-width="1.00" stroke-linecap="butt" stroke-linejoin="miter">
	<path stroke='black'  d='M87.1,418.0 L87.1,409.0 M87.1,18.1 L87.1,27.1  '/>	<g transform="translate(87.1,439.9)" stroke="none" fill="black" font-family="Arial" font-size="12.00"  text-anchor="middle">
		<text><tspan font-family="Arial" > 0</tspan></text>
	</g>
</g>
<g fill="none" color="black" stroke="currentColor" stroke-width="1.00" stroke-linecap="butt" stroke-linejoin="miter">
	<path stroke='black'  d='M140.4,418.0 L140.4,409.0 M140.4,18.1 L140.4,27.1  '/>	<g transform="translate(140.4,439.9)" stroke="none" fill="black" font-family="Arial" font-size="12.00"  text-anchor="middle">
		<text><tspan font-family="Arial" > 10</tspan></text>
	</g>
</g>
<g fill="none" color="black" stroke="currentColor" stroke-width="1.00" stroke-linecap="butt" stroke-linejoin="miter">
	<path stroke='black'  d='M193.7,418.0 L193.7,409.0 M193.7,18.1 L193.7,27.1  '/>	<g transform="translate(193.7,439.9)" stroke="none" fill="black" font-family="Arial" font-size="12.00"  text-anchor="middle">
		<text><tspan font-family="Arial" > 20</tspan></text>
	</g>
</g>
<g fill="none" color="black" stroke="currentColor" stroke-width="1.00" stroke-linecap="butt" stroke-linejoin="miter">
	<path stroke='black'  d='M247.1,418.0 L247.1,409.0 M247.1,18.1 L247.1,27.1  '/>	<g transform="translate(247.1,439.9)" stroke="none" fill="black" font-family="Arial" font-size="12.00"  text-anchor="middle">
		<text><tspan font-family="Arial" > 30</tspan></text>
	</g>
</g>
<g fill="none" color="black" stroke="currentColor" stroke-width="1.00" stroke-linecap="butt" stroke-linejoin="miter">
	<path stroke='black'  d='M300.4,418.0 L300.4,409.0 M300.4,18.1 L300.4,27.1  '/>	<g transform="translate(300.4,439.9)" stroke="none" fill="black" font-family="Arial" font-size="12.00"  text-anchor="middle">
		<text><tspan font-family="Arial" > 40</tspan></text>
	</g>
</g>
<g fill="none" color="black" stroke="currentColor" stroke-width="1.00" stroke-linecap="butt" stroke-linejoin="miter">
	<path stroke='black'  d='M353.7,418.0 L353.7,409.0 M353.7,18.1 L353.7,27.1  '/>	<g transform="translate(353.7,439.9)" stroke="none" fill="black" font-family="Arial" font-size="12.00"  text-anchor="middle">
		<text><tspan font-family="Arial" > 50</tspan></text>
	</g>
</g>
<g fill="none" color="black" stroke="currentColor" stroke-width="1.00" stroke-linecap="butt" stroke-linejoin="miter">
	<path stroke='black'  d='M407.0,418.0 L407.0,409.0 M407.0,18.1 L407.0,27.1  '/>	<g transform="translate(407.0,439.9)" stroke="none" fill="black" font-family="Arial" font-size="12.00"  text-anchor="middle">
		<text><tspan font-family="Arial" > 60</tspan></text>
	</g>
</g>
<g fill="none" color="black" stroke="currentColor" stroke-width="1.00" stroke-linecap="butt" stroke-linejoin="miter">
	<path stroke='black'  d='M460.4,418.0 L460.4,409.0 M460.4,18.1 L460.4,27.1  '/>	<g transform="translate(460.4,439.9)" stroke="none" fill="black" font-family="Arial" font-size="12.00"  text-anchor="middle">
		<text><tspan font-family="Arial" > 70</tspan></text>
	</g>
</g>
<g fill="none" color="black" stroke="currentColor" stroke-width="1.00" stroke-linecap="butt" stroke-linejoin="miter">
	<path stroke='black'  d='M513.7,418.0 L513.7,409.0 M513.7,18.1 L513.7,27.1  '/>	<g transform="translate(513.7,439.9)" stroke="none" fill="black" font-family="Arial" font-size="12.00"  text-anchor="middle">
		<text><tspan font-family="Arial" > 80</tspan></text>
	</g>
</g>
<g fill="none" color="black" stroke="currentColor" stroke-width="1.00" stroke-linecap="butt" stroke-linejoin="miter">
	<path stroke='black'  d='M567.0,418.0 L567.0,409.0 M567.0,18.1 L567.0,27.1  '/>	<g transform="translate(567.0,439.9)" stroke="none" fill="black" font-family="Arial" font-size="12.00"  text-anchor="middle">
		<text><tspan font-family="Arial" > 90</tspan></text>
	</g>
</g>
<g fill="none" color="black" stroke="currentColor" stroke-width="1.00" stroke-linecap="butt" stroke-linejoin="miter">
</g>
<g fill="none" color="black" stroke="currentColor" stroke-width="1.00" stroke-linecap="butt" stroke-linejoin="miter">
	<path stroke='black'  d='M87.1,18.1 L87.1,418.0 L615.0,418.0 L615.0,18.1 L87.1,18.1 Z  '/></g>
<g fill="none" color="black" stroke="currentColor" stroke-width="1.00" stroke-linecap="butt" stroke-linejoin="miter">
</g>
	<g id="gnuplot_plot_1" ><title>raw</title>
<g fill="none" color="black" stroke="currentColor" stroke-width="1.00" stroke-linecap="butt" stroke-linejoin="miter">
	<g transform="translate(292.2,457.9)" stroke="none" fill="black" font-family="Arial" font-size="12.00"  text-anchor="end">
		<text><tspan font-family="Arial" >raw</tspan></text>
	</g>
</g>
<g fill="none" color="black" stroke="currentColor" stroke-width="1.00" stroke-linecap="butt" stroke-linejoin="miter">
	<path stroke='rgb(148,   0, 211)'  d='M300.5,454.0 L342.7,454.0 M87.1,218.0 L92.4,218.0 L97.8,218.0 L103.1,218.0 L108.4,218.0 L113.8,218.0
		L119.1,218.0 L124.4,218.0 L129.8,218.0 L135.1,218.0 L140.4,218.0 L145.8,218.0 L151.1,218.0 L156.4,218.0
		L161.8,218.0 L167.1,218.0 L172.4,218.0 L177.7,218.0 L183.1,218.0 L188.4,218.0 L193.7,218.0 L199.1,218.0
		L204.4,218.0 L209.7,218.0 L215.1,218.0 L220.4,218.0 L225.7,218.0 L231.1,218.0 L236.4,218.0 L241.7,218.0
		L247.1,218.0 L252.4,218.0 L257.7,218.0 L263.1,218.0 L268.4,218.0 L273.7,218.0 L279.1,218.0 L284.4,218.0
		L289.7,218.0 L295.1,218.0 L300.4,218.0 L305.7,218.0 L311.1,218.0 L316.4,218.0 L321.7,218.0 L327.1,218.0
		L332.4,218.0 L337.7,218.0 L343.1,218.0 L348.4,218.0 L353.7,218.0 L359.0,218.0 L364.4,218.0 L369.7,218.0
		L375.0,218.0 L380.4,218.0 L385.7,218.0 L391.0,218.0 L396.4,218.0 L401.7,218.0 L407.0,218.0 L412.4,218.0
		L417.7,218.0 L423.0,218.0 L428.4,218.0 L433.7,218.0 L439.0,218.0 L444.4,218.0 L449.7,218.0 L455.0,218.0
		L460.4,218.0 L465.7,218.0 L471.0,218.0 L476.4,218.0 L481.7,218.0 L487.0,218.0 L492.4,218.0 L497.7,218.0
		L503.0,218.0 L508.4,218.0 L513.7,218.0 L519.0,218.0 L524.4,218.0 L529.7,218.0 L535.0,218.0 L540.3,218.0
		L545.7,218.0 L551.0,218.0 L556.3,218.0 L561.7,218.0 L567.0,218.0 L572.3,218.0 L577.7,218.0 L583.0,218.0
		L588.3,218.0 L593.7,218.0 L599.0,218.0 L604.3,218.0 L609.7,218.0 L615.0,218.0  '/></g>
	</g>
	<g id="gnuplot_plot_2" ><title>score p10=2731008</title>
<g fill="none" color="black" stroke="currentColor" stroke-width="1.00" stroke-linecap="butt" stroke-linejoin="miter">
	<g transform="translate(292.2,475.9)" stroke="none" fill="black" font-family="Arial" font-size="12.00"  text-anchor="end">
		<text><tspan font-family="Arial" >score p10=2731008</tspan></text>
	</g>
</g>
<g fill="none" color="black" stroke="currentColor" stroke-width="1.00" stroke-linecap="butt" stroke-linejoin="miter">
	<path stroke='rgb(  0, 158, 115)'  d='M300.5,472.0 L342.7,472.0  '/></g>
	</g>
	<g id="gnuplot_plot_3" ><title>score median=4096000</title>
<g fill="none" color="black" stroke="currentColor" stroke-width="1.00" stroke-linecap="butt" stroke-linejoin="miter">
	<g transform="translate(517.0,457.9)" stroke="none" fill="black" font-family="Arial" font-size="12.00"  text-anchor="end">
		<text><tspan font-family="Arial" >score median=4096000</tspan></text>
	</g>
</g>
<g fill="none" color="black" stroke="currentColor" stroke-width="1.00" stroke-linecap="butt" stroke-linejoin="miter">
	<path stroke='rgb( 86, 180, 233)'  d='M525.3,454.0 L567.5,454.0  '/></g>
	</g>
<g fill="none" color="#FFFFFF" stroke="rgb( 86, 180, 233)" stroke-width="2.00" stroke-linecap="butt" stroke-linejoin="miter">
</g>
<g fill="none" color="black" stroke="currentColor" stroke-width="2.00" stroke-linecap="butt" stroke-linejoin="miter">
</g>
<g fill="none" color="black" stroke="black" stroke-width="1.00" stroke-linecap="butt" stroke-linejoin="miter">
</g>
<g fill="none" color="black" stroke="currentColor" stroke-width="1.00" stroke-linecap="butt" stroke-linejoin="miter">
	<path stroke='black'  d='M87.1,18.1 L87.1,418.0 L615.0,418.0 L615.0,18.1 L87.1,18.1 Z  '/></g>
<g fill="none" color="black" stroke="currentColor" stroke-width="1.00" stroke-linecap="butt" stroke-linejoin="miter">
</g>
</g>
</svg>
